X:1
T:McCassery
M:6/4
L:1/4
K:G
 z4 z D| G(3B3.99999962500005/11.9999985000002B3.99999962500005/11.9999985000002c3.99999962500005/11.9999985000002B3.99999962500005/11.9999985000002c3.99999962500005/11.9999985000002B3.99999962500005/11.9999985000002 A3 G|\
 E15.9999925000037/23.999988000006 E15.9999925000037/23.999988000006 E15.9999925000037/23.999988000006 E3 E|\
 A c F2 F2| E D D3 d| B A G G2A/2-B/2| cd/2-e/2 d3 D| B B c A F A|\
 A3/2 G/2 G3 z|

